local/share/icons/dracula-icons-main/scalable/apps/guitar-pro.svg

<?xml version="1.0" encoding="UTF-8"?>
<svg xmlns="http://www.w3.org/2000/svg" xmlns:xlink="http://www.w3.org/1999/xlink" width="64" height="64" viewBox="0 0 64 64">
<defs>
<filter id="filter-remove-color" x="0%" y="0%" width="100%" height="100%">
<feColorMatrix color-interpolation-filters="sRGB" values="0 0 0 0 1 0 0 0 0 1 0 0 0 0 1 0 0 0 1 0" />
</filter>
<mask id="mask-0">
<g filter="url(#filter-remove-color)">
<rect x="-6.4" y="-6.4" width="76.8" height="76.8" fill="rgb(0%, 0%, 0%)" fill-opacity="0.1"/>
</g>
</mask>
<clipPath id="clip-0">
<rect x="0" y="0" width="17" height="17"/>
</clipPath>
<g id="source-14690" clip-path="url(#clip-0)">
<path fill-rule="nonzero" fill="rgb(100%, 100%, 100%)" fill-opacity="1" d="M 14.550781 8.464844 C 14.550781 11.828125 11.828125 14.550781 8.464844 14.550781 C 5.105469 14.550781 2.382812 11.828125 2.382812 8.464844 C 2.382812 5.105469 5.105469 2.382812 8.464844 2.382812 C 11.828125 2.382812 14.550781 5.105469 14.550781 8.464844 "/>
</g>
</defs>
<path fill-rule="nonzero" fill="rgb(100%, 100%, 100%)" fill-opacity="1" d="M 5.128906 9.457031 C 6.078125 11.523438 7.449219 13.6875 8.464844 13.6875 C 9.480469 13.6875 10.855469 11.523438 11.804688 9.457031 C 11.785156 9.464844 11.761719 9.472656 11.742188 9.484375 C 11.699219 9.5 11.660156 9.515625 11.621094 9.53125 C 11.578125 9.546875 11.539062 9.5625 11.496094 9.578125 C 11.457031 9.589844 11.414062 9.605469 11.375 9.621094 C 11.332031 9.636719 11.292969 9.648438 11.25 9.664062 C 11.207031 9.675781 11.167969 9.691406 11.125 9.703125 C 11.085938 9.71875 11.042969 9.730469 11 9.742188 C 10.960938 9.753906 10.917969 9.765625 10.875 9.777344 C 10.832031 9.789062 10.792969 9.800781 10.75 9.8125 C 10.707031 9.824219 10.664062 9.835938 10.625 9.847656 C 10.582031 9.859375 10.539062 9.867188 10.496094 9.878906 C 10.453125 9.886719 10.410156 9.898438 10.367188 9.90625 C 10.328125 9.917969 10.285156 9.925781 10.242188 9.933594 C 10.199219 9.941406 10.15625 9.953125 10.113281 9.960938 C 10.070312 9.96875 10.027344 9.976562 9.984375 9.984375 C 9.941406 9.992188 9.898438 9.996094 9.855469 10.003906 C 9.8125 10.011719 9.769531 10.019531 9.726562 10.023438 C 9.683594 10.03125 9.640625 10.035156 9.597656 10.042969 C 9.554688 10.046875 9.511719 10.054688 9.46875 10.058594 C 9.421875 10.0625 9.378906 10.066406 9.335938 10.074219 C 9.292969 10.078125 9.25 10.082031 9.207031 10.085938 C 9.164062 10.089844 9.121094 10.089844 9.078125 10.09375 C 9.03125 10.097656 8.988281 10.101562 8.945312 10.101562 C 8.902344 10.105469 8.859375 10.105469 8.816406 10.109375 C 8.773438 10.109375 8.726562 10.113281 8.683594 10.113281 C 8.640625 10.113281 8.597656 10.113281 8.554688 10.113281 C 8.523438 10.113281 8.496094 10.113281 8.464844 10.113281 C 8.421875 10.113281 8.378906 10.113281 8.335938 10.113281 C 8.292969 10.113281 8.25 10.113281 8.207031 10.109375 C 8.160156 10.109375 8.117188 10.109375 8.074219 10.105469 C 8.03125 10.105469 7.988281 10.101562 7.945312 10.097656 C 7.898438 10.097656 7.855469 10.09375 7.8125 10.089844 C 7.769531 10.085938 7.726562 10.082031 7.683594 10.078125 C 7.640625 10.074219 7.597656 10.070312 7.554688 10.066406 C 7.511719 10.0625 7.464844 10.058594 7.421875 10.050781 C 7.378906 10.046875 7.335938 10.042969 7.292969 10.035156 C 7.25 10.03125 7.207031 10.023438 7.164062 10.015625 C 7.121094 10.011719 7.078125 10.003906 7.035156 9.996094 C 6.992188 9.988281 6.949219 9.980469 6.90625 9.972656 C 6.863281 9.96875 6.820312 9.957031 6.777344 9.949219 C 6.734375 9.941406 6.691406 9.933594 6.648438 9.925781 C 6.605469 9.914062 6.566406 9.90625 6.523438 9.894531 C 6.480469 9.886719 6.4375 9.875 6.394531 9.867188 C 6.351562 9.855469 6.3125 9.847656 6.269531 9.835938 C 6.226562 9.824219 6.183594 9.8125 6.140625 9.800781 C 6.101562 9.789062 6.058594 9.777344 6.015625 9.765625 C 5.972656 9.753906 5.933594 9.742188 5.890625 9.726562 C 5.847656 9.714844 5.808594 9.703125 5.765625 9.6875 C 5.726562 9.675781 5.683594 9.664062 5.640625 9.648438 C 5.601562 9.632812 5.558594 9.621094 5.519531 9.605469 C 5.476562 9.589844 5.4375 9.574219 5.394531 9.558594 C 5.355469 9.546875 5.3125 9.53125 5.273438 9.515625 C 5.234375 9.5 5.191406 9.480469 5.152344 9.464844 C 5.144531 9.460938 5.136719 9.457031 5.128906 9.457031 Z M 5.128906 9.457031 "/>
<path fill-rule="nonzero" fill="rgb(21.960784%, 56.862745%, 100%)" fill-opacity="1" d="M 15.609375 8.464844 C 15.609375 12.410156 12.410156 15.609375 8.464844 15.609375 C 4.519531 15.609375 1.324219 12.410156 1.324219 8.464844 C 1.324219 4.519531 4.519531 1.324219 8.464844 1.324219 C 12.410156 1.324219 15.609375 4.519531 15.609375 8.464844 "/>
<g mask="url(#mask-0)">
<use xlink:href="#source-14690"/>
</g>
<path fill-rule="nonzero" fill="rgb(100%, 100%, 100%)" fill-opacity="1" d="M 5.128906 9.457031 C 5.136719 9.460938 5.144531 9.464844 5.152344 9.46875 C 5.191406 9.484375 5.234375 9.5 5.273438 9.515625 C 5.3125 9.53125 5.355469 9.546875 5.394531 9.5625 C 5.4375 9.578125 5.476562 9.59375 5.519531 9.605469 C 5.558594 9.621094 5.601562 9.636719 5.640625 9.648438 C 5.683594 9.664062 5.726562 9.675781 5.765625 9.691406 C 5.808594 9.703125 5.847656 9.71875 5.890625 9.730469 C 5.933594 9.742188 5.972656 9.753906 6.015625 9.765625 C 6.058594 9.78125 6.101562 9.792969 6.140625 9.804688 C 6.183594 9.8125 6.226562 9.824219 6.269531 9.835938 C 6.3125 9.847656 6.351562 9.859375 6.394531 9.867188 C 6.4375 9.878906 6.480469 9.886719 6.523438 9.898438 C 6.566406 9.90625 6.609375 9.917969 6.648438 9.925781 C 6.691406 9.933594 6.734375 9.945312 6.777344 9.953125 C 6.820312 9.960938 6.863281 9.96875 6.90625 9.976562 C 6.949219 9.984375 6.992188 9.992188 7.035156 10 C 7.078125 10.003906 7.121094 10.011719 7.164062 10.019531 C 7.207031 10.023438 7.25 10.03125 7.292969 10.039062 C 7.335938 10.042969 7.378906 10.046875 7.421875 10.054688 C 7.464844 10.058594 7.511719 10.0625 7.554688 10.066406 C 7.597656 10.074219 7.640625 10.078125 7.683594 10.082031 C 7.726562 10.085938 7.769531 10.089844 7.8125 10.089844 C 7.855469 10.09375 7.902344 10.097656 7.945312 10.101562 C 7.988281 10.101562 8.03125 10.105469 8.074219 10.109375 C 8.117188 10.109375 8.160156 10.109375 8.207031 10.113281 C 8.25 10.113281 8.292969 10.113281 8.335938 10.117188 C 8.378906 10.117188 8.421875 10.117188 8.464844 10.117188 C 8.496094 10.117188 8.523438 10.117188 8.554688 10.117188 C 8.597656 10.117188 8.640625 10.113281 8.683594 10.113281 C 8.730469 10.113281 8.773438 10.113281 8.816406 10.109375 C 8.859375 10.109375 8.902344 10.105469 8.945312 10.105469 C 8.988281 10.101562 9.035156 10.097656 9.078125 10.097656 C 9.121094 10.09375 9.164062 10.089844 9.207031 10.085938 C 9.25 10.082031 9.292969 10.078125 9.335938 10.074219 C 9.378906 10.070312 9.421875 10.066406 9.46875 10.058594 C 9.511719 10.054688 9.554688 10.050781 9.597656 10.042969 C 9.640625 10.039062 9.683594 10.03125 9.726562 10.027344 C 9.769531 10.019531 9.8125 10.011719 9.855469 10.007812 C 9.898438 10 9.941406 9.992188 9.984375 9.984375 C 10.027344 9.976562 10.070312 9.96875 10.113281 9.960938 C 10.15625 9.953125 10.199219 9.945312 10.242188 9.9375 C 10.285156 9.925781 10.328125 9.917969 10.367188 9.910156 C 10.410156 9.898438 10.453125 9.890625 10.496094 9.878906 C 10.539062 9.871094 10.582031 9.859375 10.625 9.847656 C 10.664062 9.835938 10.707031 9.828125 10.75 9.816406 C 10.792969 9.804688 10.832031 9.792969 10.875 9.78125 C 10.917969 9.769531 10.960938 9.757812 11 9.742188 C 11.042969 9.730469 11.085938 9.71875 11.125 9.707031 C 11.167969 9.691406 11.207031 9.679688 11.25 9.664062 C 11.292969 9.652344 11.332031 9.636719 11.375 9.621094 C 11.414062 9.609375 11.457031 9.59375 11.496094 9.578125 C 11.539062 9.5625 11.578125 9.546875 11.621094 9.53125 C 11.660156 9.515625 11.699219 9.5 11.742188 9.484375 C 11.761719 9.476562 11.785156 9.46875 11.804688 9.457031 C 12.398438 8.171875 12.863281 6.910156 12.863281 6.269531 C 12.863281 4.601562 10.894531 3.246094 8.464844 3.246094 C 6.039062 3.246094 4.070312 4.601562 4.070312 6.269531 C 4.070312 6.910156 4.535156 8.171875 5.128906 9.457031 Z M 5.128906 9.457031 C 6.078125 11.523438 7.449219 13.6875 8.464844 13.6875 C 9.480469 13.6875 10.855469 11.523438 11.804688 9.457031 C 11.785156 9.464844 11.761719 9.472656 11.742188 9.484375 C 11.699219 9.5 11.660156 9.515625 11.621094 9.53125 C 11.578125 9.546875 11.539062 9.5625 11.496094 9.578125 C 11.457031 9.589844 11.414062 9.605469 11.375 9.621094 C 11.332031 9.636719 11.292969 9.648438 11.25 9.664062 C 11.207031 9.675781 11.167969 9.691406 11.125 9.703125 C 11.085938 9.71875 11.042969 9.730469 11 9.742188 C 10.960938 9.753906 10.917969 9.765625 10.875 9.777344 C 10.832031 9.789062 10.792969 9.800781 10.75 9.8125 C 10.707031 9.824219 10.664062 9.835938 10.625 9.847656 C 10.582031 9.859375 10.539062 9.867188 10.496094 9.878906 C 10.453125 9.886719 10.410156 9.898438 10.367188 9.90625 C 10.328125 9.917969 10.285156 9.925781 10.242188 9.933594 C 10.199219 9.941406 10.15625 9.953125 10.113281 9.960938 C 10.070312 9.96875 10.027344 9.976562 9.984375 9.984375 C 9.941406 9.992188 9.898438 9.996094 9.855469 10.003906 C 9.8125 10.011719 9.769531 10.019531 9.726562 10.023438 C 9.683594 10.03125 9.640625 10.035156 9.597656 10.042969 C 9.554688 10.046875 9.511719 10.054688 9.46875 10.058594 C 9.421875 10.0625 9.378906 10.066406 9.335938 10.074219 C 9.292969 10.078125 9.25 10.082031 9.207031 10.085938 C 9.164062 10.089844 9.121094 10.089844 9.078125 10.09375 C 9.03125 10.097656 8.988281 10.101562 8.945312 10.101562 C 8.902344 10.105469 8.859375 10.105469 8.816406 10.109375 C 8.773438 10.109375 8.726562 10.113281 8.683594 10.113281 C 8.640625 10.113281 8.597656 10.113281 8.554688 10.113281 C 8.523438 10.113281 8.496094 10.113281 8.464844 10.113281 C 8.421875 10.113281 8.378906 10.113281 8.335938 10.113281 C 8.292969 10.113281 8.25 10.113281 8.207031 10.109375 C 8.160156 10.109375 8.117188 10.109375 8.074219 10.105469 C 8.03125 10.105469 7.988281 10.101562 7.945312 10.097656 C 7.898438 10.097656 7.855469 10.09375 7.8125 10.089844 C 7.769531 10.085938 7.726562 10.082031 7.683594 10.078125 C 7.640625 10.074219 7.597656 10.070312 7.554688 10.066406 C 7.511719 10.0625 7.464844 10.058594 7.421875 10.050781 C 7.378906 10.046875 7.335938 10.042969 7.292969 10.035156 C 7.25 10.03125 7.207031 10.023438 7.164062 10.015625 C 7.121094 10.011719 7.078125 10.003906 7.035156 9.996094 C 6.992188 9.988281 6.949219 9.980469 6.90625 9.972656 C 6.863281 9.96875 6.820312 9.957031 6.777344 9.949219 C 6.734375 9.941406 6.691406 9.933594 6.648438 9.925781 C 6.605469 9.914062 6.566406 9.90625 6.523438 9.894531 C 6.480469 9.886719 6.4375 9.875 6.394531 9.867188 C 6.351562 9.855469 6.3125 9.847656 6.269531 9.835938 C 6.226562 9.824219 6.183594 9.8125 6.140625 9.800781 C 6.101562 9.789062 6.058594 9.777344 6.015625 9.765625 C 5.972656 9.753906 5.933594 9.742188 5.890625 9.726562 C 5.847656 9.714844 5.808594 9.703125 5.765625 9.6875 C 5.726562 9.675781 5.683594 9.664062 5.640625 9.648438 C 5.601562 9.632812 5.558594 9.621094 5.519531 9.605469 C 5.476562 9.589844 5.4375 9.574219 5.394531 9.558594 C 5.355469 9.546875 5.3125 9.53125 5.273438 9.515625 C 5.234375 9.5 5.191406 9.480469 5.152344 9.464844 C 5.144531 9.460938 5.136719 9.457031 5.128906 9.457031 Z M 5.128906 9.457031 "/>
<path fill-rule="nonzero" fill="rgb(19.607843%, 57.254902%, 99.607843%)" fill-opacity="1" d="M 7.542969 7.730469 C 7.457031 7.878906 7.363281 7.984375 7.257812 8.054688 C 7.15625 8.121094 7.039062 8.15625 6.902344 8.15625 C 6.664062 8.15625 6.46875 8.039062 6.3125 7.796875 C 6.15625 7.554688 6.082031 7.246094 6.082031 6.875 C 6.082031 6.5 6.15625 6.191406 6.3125 5.953125 C 6.46875 5.710938 6.664062 5.59375 6.902344 5.59375 C 7.039062 5.59375 7.15625 5.625 7.257812 5.695312 C 7.363281 5.765625 7.457031 5.871094 7.542969 6.019531 L 7.542969 5.648438 L 8.167969 5.648438 L 8.167969 7.902344 C 8.167969 8.308594 8.070312 8.613281 7.871094 8.828125 C 7.675781 9.039062 7.386719 9.148438 7.011719 9.148438 C 6.890625 9.148438 6.773438 9.136719 6.660156 9.113281 C 6.546875 9.089844 6.433594 9.050781 6.320312 9.003906 L 6.320312 8.378906 C 6.425781 8.457031 6.535156 8.515625 6.636719 8.554688 C 6.742188 8.597656 6.847656 8.617188 6.953125 8.617188 C 7.15625 8.617188 7.304688 8.558594 7.398438 8.445312 C 7.496094 8.328125 7.542969 8.148438 7.542969 7.902344 Z M 7.132812 6.171875 C 7.003906 6.171875 6.902344 6.230469 6.832031 6.355469 C 6.761719 6.476562 6.726562 6.648438 6.726562 6.875 C 6.726562 7.105469 6.757812 7.277344 6.828125 7.398438 C 6.898438 7.515625 7 7.574219 7.132812 7.574219 C 7.261719 7.574219 7.363281 7.515625 7.433594 7.390625 C 7.507812 7.269531 7.542969 7.097656 7.542969 6.875 C 7.542969 6.648438 7.507812 6.476562 7.433594 6.355469 C 7.363281 6.230469 7.261719 6.171875 7.132812 6.171875 Z M 7.132812 6.171875 "/>
<path fill-rule="nonzero" fill="rgb(19.607843%, 57.254902%, 99.607843%)" fill-opacity="1" d="M 9.386719 7.792969 L 9.386719 9.113281 L 8.765625 9.113281 L 8.765625 5.648438 L 9.386719 5.648438 L 9.386719 6.015625 C 9.472656 5.871094 9.566406 5.761719 9.671875 5.691406 C 9.777344 5.621094 9.894531 5.585938 10.03125 5.585938 C 10.269531 5.585938 10.46875 5.710938 10.621094 5.957031 C 10.773438 6.203125 10.851562 6.519531 10.851562 6.90625 C 10.851562 7.292969 10.773438 7.609375 10.621094 7.855469 C 10.46875 8.101562 10.269531 8.222656 10.03125 8.222656 C 9.894531 8.222656 9.777344 8.1875 9.671875 8.121094 C 9.566406 8.050781 9.472656 7.941406 9.386719 7.792969 Z M 9.800781 6.171875 C 9.667969 6.171875 9.5625 6.234375 9.492188 6.359375 C 9.421875 6.484375 9.386719 6.667969 9.386719 6.90625 C 9.386719 7.140625 9.421875 7.324219 9.492188 7.453125 C 9.5625 7.578125 9.667969 7.640625 9.800781 7.640625 C 9.933594 7.640625 10.035156 7.578125 10.105469 7.453125 C 10.175781 7.324219 10.210938 7.144531 10.210938 6.90625 C 10.210938 6.664062 10.175781 6.484375 10.105469 6.359375 C 10.035156 6.234375 9.933594 6.171875 9.800781 6.171875 Z M 9.800781 6.171875 "/>
</svg>

<svg width="64" height="64" version="1.1" viewBox="0 0 16.933 16.933" xmlns="http://www.w3.org/2000/svg">
 <g>
  <path d="m5.1282 9.4568c0.95046 2.0656 2.3229 4.2303 3.3384 4.2303 1.0155 0 2.388-2.1647 3.3384-4.2303a8.7923 8.7923 0 0 1-0.0644 0.0263 8.7923 8.7923 0 0 1-0.12128 0.047798 8.7923 8.7923 0 0 1-0.12236 0.045596 8.7923 8.7923 0 0 1-0.12342 0.044001 8.7923 8.7923 0 0 1-0.12343 0.042399 8.7923 8.7923 0 0 1-0.1245 0.040804 8.7923 8.7923 0 0 1-0.1245 0.038602 8.7923 8.7923 0 0 1-0.12557 0.036501 8.7923 8.7923 0 0 1-0.12611 0.034897 8.7923 8.7923 0 0 1-0.12611 0.033303 8.7923 8.7923 0 0 1-0.12719 0.031101 8.7923 8.7923 0 0 1-0.12718 0.029 8.7923 8.7923 0 0 1-0.12826 0.027397 8.7923 8.7923 0 0 1-0.12772 0.025203 8.7923 8.7923 0 0 1-0.12879 0.0236 8.7923 8.7923 0 0 1-0.1288 0.0215 8.7923 8.7923 0 0 1-0.12933 0.0199 8.7923 8.7923 0 0 1-0.12933 0.0177 8.7923 8.7923 0 0 1-0.12986 0.0161 8.7923 8.7923 0 0 1-0.12987 0.0139 8.7923 8.7923 0 0 1-0.1304 0.0118 8.7923 8.7923 0 0 1-0.12987 0.0102 8.7923 8.7923 0 0 1-0.13094 8e-3 8.7923 8.7923 0 0 1-0.1304 6e-3 8.7923 8.7923 0 0 1-0.13041 4e-3 8.7923 8.7923 0 0 1-0.13094 2e-3 8.7923 8.7923 0 0 1-0.0875 5.29e-4 8.7923 8.7923 0 0 1-0.13094-1e-3 8.7923 8.7923 0 0 1-0.1304-3e-3 8.7923 8.7923 0 0 1-0.13041-5e-3 8.7923 8.7923 0 0 1-0.13094-7e-3 8.7923 8.7923 0 0 1-0.1304-9e-3 8.7923 8.7923 0 0 1-0.12987-0.0107 8.7923 8.7923 0 0 1-0.1304-0.0129 8.7923 8.7923 0 0 1-0.12987-0.01447 8.7923 8.7923 0 0 1-0.12933-0.0161 8.7923 8.7923 0 0 1-0.12986-0.0188 8.7923 8.7923 0 0 1-0.1288-0.020402 8.7923 8.7923 0 0 1-0.12879-0.021997 8.7923 8.7923 0 0 1-0.12826-0.024097 8.7923 8.7923 0 0 1-0.12826-0.0263 8.7923 8.7923 0 0 1-0.12772-0.027903 8.7923 8.7923 0 0 1-0.12718-0.029497 8.7923 8.7923 0 0 1-0.12665-0.0317 8.7923 8.7923 0 0 1-0.12664-0.033824 8.7923 8.7923 0 0 1-0.12558-0.035404 8.7923 8.7923 0 0 1-0.12557-0.037598 8.7923 8.7923 0 0 1-0.1245-0.039201 8.7923 8.7923 0 0 1-0.12397-0.040804 8.7923 8.7923 0 0 1-0.12342-0.042896 8.7923 8.7923 0 0 1-0.12289-0.045098 8.7923 8.7923 0 0 1-0.12236-0.046204 8.7923 8.7923 0 0 1-0.12128-0.048803 8.7923 8.7923 0 0 1-0.024199-0.01z" fill="#fff" stroke-width=".54002"/>
  <path d="m15.61 8.4667a7.1438 7.1437 0 0 1-7.1438 7.1438 7.1438 7.1437 0 0 1-7.1437-7.1438 7.1438 7.1437 0 0 1 7.1437-7.1437 7.1438 7.1437 0 0 1 7.1438 7.1437" fill="#3891ff" stroke-width=".26458"/>
  <path d="m14.552 8.4667a6.0854 6.0854 0 0 1-6.0854 6.0854 6.0854 6.0854 0 0 1-6.0854-6.0854 6.0854 6.0854 0 0 1 6.0854-6.0854 6.0854 6.0854 0 0 1 6.0854 6.0854" fill="#fff" opacity=".1" stroke-width=".22539"/>
  <path d="m5.1282 9.4568a8.7923 8.7923 0 0 0 0.024199 0.01 8.7923 8.7923 0 0 0 0.12128 0.048803 8.7923 8.7923 0 0 0 0.12236 0.046204 8.7923 8.7923 0 0 0 0.12289 0.045098 8.7923 8.7923 0 0 0 0.12342 0.042896 8.7923 8.7923 0 0 0 0.12397 0.040804 8.7923 8.7923 0 0 0 0.1245 0.039201 8.7923 8.7923 0 0 0 0.12557 0.037598 8.7923 8.7923 0 0 0 0.12558 0.035404 8.7923 8.7923 0 0 0 0.12664 0.033801 8.7923 8.7923 0 0 0 0.12665 0.0317 8.7923 8.7923 0 0 0 0.12718 0.029497 8.7923 8.7923 0 0 0 0.12772 0.027903 8.7923 8.7923 0 0 0 0.12826 0.0263 8.7923 8.7923 0 0 0 0.12826 0.024097 8.7923 8.7923 0 0 0 0.12879 0.021997 8.7923 8.7923 0 0 0 0.12879 0.020402 8.7923 8.7923 0 0 0 0.12987 0.0188 8.7923 8.7923 0 0 0 0.12933 0.0161 8.7923 8.7923 0 0 0 0.12987 0.0145 8.7923 8.7923 0 0 0 0.1304 0.0129 8.7923 8.7923 0 0 0 0.12987 0.0107 8.7923 8.7923 0 0 0 0.1304 9e-3 8.7923 8.7923 0 0 0 0.13094 7e-3 8.7923 8.7923 0 0 0 0.13041 5e-3 8.7923 8.7923 0 0 0 0.1304 3e-3 8.7923 8.7923 0 0 0 0.13094 1e-3 8.7923 8.7923 0 0 0 0.0875-5.56e-4 8.7923 8.7923 0 0 0 0.13094-2e-3 8.7923 8.7923 0 0 0 0.13041-4e-3 8.7923 8.7923 0 0 0 0.1304-6e-3 8.7923 8.7923 0 0 0 0.13094-8e-3 8.7923 8.7923 0 0 0 0.12987-0.0102 8.7923 8.7923 0 0 0 0.1304-0.0118 8.7923 8.7923 0 0 0 0.12987-0.014 8.7923 8.7923 0 0 0 0.12986-0.0161 8.7923 8.7923 0 0 0 0.12933-0.0177 8.7923 8.7923 0 0 0 0.12933-0.0199 8.7923 8.7923 0 0 0 0.1288-0.0215 8.7923 8.7923 0 0 0 0.12879-0.0236 8.7923 8.7923 0 0 0 0.12772-0.025203 8.7923 8.7923 0 0 0 0.12826-0.027397 8.7923 8.7923 0 0 0 0.12718-0.029 8.7923 8.7923 0 0 0 0.12719-0.031101 8.7923 8.7923 0 0 0 0.12611-0.033303 8.7923 8.7923 0 0 0 0.12611-0.034897 8.7923 8.7923 0 0 0 0.12557-0.036501 8.7923 8.7923 0 0 0 0.1245-0.038602 8.7923 8.7923 0 0 0 0.1245-0.040804 8.7923 8.7923 0 0 0 0.12343-0.042398 8.7923 8.7923 0 0 0 0.12343-0.044002 8.7923 8.7923 0 0 0 0.12235-0.045596 8.7923 8.7923 0 0 0 0.12128-0.047798 8.7923 8.7923 0 0 0 0.0644-0.0263c0.59249-1.2877 1.0577-2.5472 1.0577-3.1882 0-1.6692-1.9682-3.0223-4.3962-3.0223s-4.3962 1.3532-4.3962 3.0223c0 0.64098 0.46523 1.9005 1.0577 3.1882zm0 0c0.95046 2.0656 2.3229 4.2303 3.3384 4.2303 1.0155 0 2.388-2.1647 3.3384-4.2303a8.7923 8.7923 0 0 1-0.0644 0.0263 8.7923 8.7923 0 0 1-0.12128 0.047798 8.7923 8.7923 0 0 1-0.12236 0.045596 8.7923 8.7923 0 0 1-0.12342 0.044001 8.7923 8.7923 0 0 1-0.12343 0.042399 8.7923 8.7923 0 0 1-0.1245 0.040804 8.7923 8.7923 0 0 1-0.1245 0.038602 8.7923 8.7923 0 0 1-0.12557 0.036501 8.7923 8.7923 0 0 1-0.12611 0.034897 8.7923 8.7923 0 0 1-0.12611 0.033303 8.7923 8.7923 0 0 1-0.12719 0.031101 8.7923 8.7923 0 0 1-0.12718 0.029 8.7923 8.7923 0 0 1-0.12826 0.027397 8.7923 8.7923 0 0 1-0.12772 0.025203 8.7923 8.7923 0 0 1-0.12879 0.0236 8.7923 8.7923 0 0 1-0.1288 0.0215 8.7923 8.7923 0 0 1-0.12933 0.0199 8.7923 8.7923 0 0 1-0.12933 0.0177 8.7923 8.7923 0 0 1-0.12986 0.0161 8.7923 8.7923 0 0 1-0.12987 0.0139 8.7923 8.7923 0 0 1-0.1304 0.0118 8.7923 8.7923 0 0 1-0.12987 0.0102 8.7923 8.7923 0 0 1-0.13094 8e-3 8.7923 8.7923 0 0 1-0.1304 6e-3 8.7923 8.7923 0 0 1-0.13041 4e-3 8.7923 8.7923 0 0 1-0.13094 2e-3 8.7923 8.7923 0 0 1-0.0875 5.29e-4 8.7923 8.7923 0 0 1-0.13094-1e-3 8.7923 8.7923 0 0 1-0.1304-3e-3 8.7923 8.7923 0 0 1-0.13041-5e-3 8.7923 8.7923 0 0 1-0.13094-7e-3 8.7923 8.7923 0 0 1-0.1304-9e-3 8.7923 8.7923 0 0 1-0.12987-0.0107 8.7923 8.7923 0 0 1-0.1304-0.0129 8.7923 8.7923 0 0 1-0.12987-0.01447 8.7923 8.7923 0 0 1-0.12933-0.0161 8.7923 8.7923 0 0 1-0.12986-0.0188 8.7923 8.7923 0 0 1-0.1288-0.020402 8.7923 8.7923 0 0 1-0.12879-0.021997 8.7923 8.7923 0 0 1-0.12826-0.024097 8.7923 8.7923 0 0 1-0.12826-0.0263 8.7923 8.7923 0 0 1-0.12772-0.027903 8.7923 8.7923 0 0 1-0.12718-0.029497 8.7923 8.7923 0 0 1-0.12665-0.0317 8.7923 8.7923 0 0 1-0.12664-0.033824 8.7923 8.7923 0 0 1-0.12558-0.035404 8.7923 8.7923 0 0 1-0.12557-0.037598 8.7923 8.7923 0 0 1-0.1245-0.039201 8.7923 8.7923 0 0 1-0.12397-0.040804 8.7923 8.7923 0 0 1-0.12342-0.042896 8.7923 8.7923 0 0 1-0.12289-0.045098 8.7923 8.7923 0 0 1-0.12236-0.046204 8.7923 8.7923 0 0 1-0.12128-0.048803 8.7923 8.7923 0 0 1-0.024199-0.01z" fill="#fff" stroke-width=".54002"/>
  <g transform="matrix(.10841 0 0 .13987 .58407 .58407)" fill="#3292fe" stroke-width=".78972" aria-label="gp">
   <path d="m64.187 51.102q-1.1853 1.5697-2.6108 2.3065-1.4256 0.7368-3.2996 0.7368-3.2836 0-5.4299-2.5788-2.1463-2.5948-2.1463-6.5992 0-4.0204 2.1463-6.5832 2.1463-2.5788 5.4299-2.5788 1.874 0 3.2996 0.7368 1.4256 0.7368 2.6108 2.3225v-2.6589h5.7663v16.13q0 4.3247-2.739 6.5992-2.723 2.2905-7.9126 2.2905-1.6818 0-3.2515-0.25628t-3.1554-0.78486v-4.4689q1.5056 0.86494 2.9472 1.2814 1.4416 0.43247 2.8992 0.43247 2.8191 0 4.1325-1.2333 1.3134-1.2333 1.3134-3.8602zm-3.7801-11.164q-1.7779 0-2.771 1.3134-0.99308 1.3134-0.99308 3.7161 0 2.4667 0.96105 3.7481 0.96105 1.2654 2.8031 1.2654 1.794 0 2.787-1.3134 0.99308-1.3134 0.99308-3.7 0-2.4026-0.99308-3.7161-0.99308-1.3134-2.787-1.3134z"/>
   <path d="m81.197 51.55v9.4183h-5.7343v-24.763h5.7343v2.6269q1.1853-1.5697 2.6269-2.3065 1.4416-0.75282 3.3156-0.75282 3.3156 0 5.4459 2.6429 2.1303 2.6269 2.1303 6.7754 0 4.1485-2.1303 6.7914-2.1303 2.6269-5.4459 2.6269-1.874 0-3.3156-0.7368-1.4416-0.75282-2.6269-2.3225zm3.8122-11.613q-1.842 0-2.8351 1.3615-0.97707 1.3455-0.97707 3.8922 0 2.5468 0.97707 3.9083 0.99308 1.3455 2.8351 1.3455t2.8031-1.3455q0.97707-1.3455 0.97707-3.9083 0-2.5628-0.97707-3.9083-0.96105-1.3455-2.8031-1.3455z"/>
  </g>
 </g>
</svg>
